X:85
T:T054- The Flower of Edinburgh
S:John Johnson's 'Twelve Country Dances.. for the year 1749'
Q:1/4=120
L:1/4
M:C|
K:G
(3 G/F/E/|D3/2E/G3/2A/|B/G/ B/d/{c/}BA/G/|{G/}F3/2E/ D/E/ F/G/|\
A/F/ d/F/EF/E/|D/E/ F/D/B3/2A/|(3 B/A/G/ (3 B/c/d/ e3/2g/|\
d/B/ A/G/EG/A/|BG/A/G::d|g/f/ g3/4a/4 g/4a/4b/ a/g/|\
f/e/ f3/4g/4 f/4g/4a/ g/f/|e/d/ e/f/ g/f/ e/d/|\
Bee3/2g/8f/8e/4|d/B/ A/G/dc/B/|e/d/ e/f/ g3/2 g/8a/8b/4|\
c/B/ A/G/EG/A/|BGG:|]

